builds/assets/images/general/contact_icon.svg

<svg xmlns="http://www.w3.org/2000/svg" viewBox="0 0 44.5 38"><path fill="#FAFAFA" d="M4.6 0c-1.6 0-3 1.3-3 3s1.3 3 3 3c.5 0 .8-.4.8-.8s-.3-.9-.7-.9c-.7 0-1.3-.4-1.3-1.2C3.4 2.4 4 2 4.7 2c.1 0 1.3-.3 1.3.9v32.5C6 36.7 7.4 38 8.8 38h27.6c1.8 0 3.3-1.7 3.3-3.5S38.2 31 36.4 31h-24c-.4 0-.8.4-.8.8-.1.4.2.8.5 1 0 0 1.6.6 1.6 1.7 0 .9-1.2 1.6-1.6 1.6H8.8c-.4-.1-.8-.3-.8-.8V2.5c0-.4.4-.5.8-.5h25.9c.6 0 1.3.1 1.3.5V30h-.4s.4.8.8.8.8-.8.8-.8H37V2.5c0-1.4-.8-2.5-2.2-2.5H4.6zM15 36c.3 0 .5-.8.5-1.5S15.3 33 15 33h21.5c.9 0 1.6.6 1.6 1.5s-.7 1.5-1.6 1.5H15z"/><g fill="#FAFAFA"><path d="M22.3 15.9c3.4 0 4.2 1.1 4.2 2.1h4.2c0-3-3.6-4.9-8.3-4.9-4.9 0-8.4 1.9-8.4 4.9h4.2c-.1-1 .6-2.1 4.1-2.1zM14 18h4v2h-4zm12 0h5v2h-5zm-2 5.6c0 1-.8 1.7-1.7 1.7-1 0-1.7-.8-1.7-1.7 0-1 .8-1.7 1.7-1.7 1 0 1.7.8 1.7 1.7z"/><path d="M24 16.6c0-.1-1-.2-1-.2V19h-1v-2.6c-1 0-1 .1-2 .2v3.2l-5 2.8V27h14v-4.4l-5-2.8v-3.2zm1.1 7c0 1.5-1.2 2.8-2.8 2.8-1.5 0-2.8-1.2-2.8-2.8 0-1.5 1.2-2.8 2.8-2.8 1.5.1 2.8 1.3 2.8 2.8z"/></g><text transform="translate(11.094 9.379)" fill="#FAFAFA" font-family="FreightSansProBook-Regular" font-size="7.051">Contact</text></svg>

<svg id="Layer_1" xmlns="http://www.w3.org/2000/svg" viewBox="0 0 44.5 38"><path fill="#FAFAFA" d="M4.6,0c-1.6,0-3,1.3-3,3s1.3,3,3,3c0.5,0,0.8-0.4,0.8-0.8S5.1,4.3,4.7,4.3C4,4.3,3.4,3.9,3.4,3.1 C3.4,2.4,4,2,4.7,2l0,0C4.8,2,6,1.7,6,2.9v32.5C6,36.7,7.4,38,8.8,38h4.5l0,0h23.1c1.8,0,3.3-1.7,3.3-3.5S38.2,31,36.4,31h-24 c-0.4,0-0.8,0.4-0.8,0.8c-0.1,0.4,0.2,0.8,0.5,1c0,0,1.6,0.6,1.6,1.7c0,0.9-1.2,1.6-1.6,1.6H8.8C8.4,36,8,35.8,8,35.3V2.5 C8,2.1,8.4,2,8.8,2h25.9C35.3,2,36,2.1,36,2.5V30h-0.4c0,0,0.4,0.8,0.8,0.8c0.4,0,0.8-0.8,0.8-0.8H37V2.5C37,1.1,36.2,0,34.8,0 H4.6L4.6,0z M15,36c0.3,0,0.5-0.8,0.5-1.5S15.3,33,15,33h21.5c0.9,0,1.6,0.6,1.6,1.5S37.4,36,36.5,36H15L15,36z"/><g fill="#FAFAFA"><path d="M22.3,15.9c3.4,0,4.2,1.1,4.2,2.1h4.2c0-3-3.6-4.9-8.3-4.9C17.5,13.1,14,15,14,18h4.2 C18.1,17,18.8,15.9,22.3,15.9L22.3,15.9z"/><path d="M14 18H18V20H14z"/><path d="M26 18H31V20H26z"/><path d="M24,23.6c0,1-0.8,1.7-1.7,1.7c-1,0-1.7-0.8-1.7-1.7c0-1,0.8-1.7,1.7-1.7C23.3,21.9,24,22.7,24,23.6L24,23.6z"/><path d="M24,16.6c0-0.1-1-0.2-1-0.2V19h-1v-2.6c-1,0-1,0.1-2,0.2v3.2l-5,2.8V27h14v-4.4l-5-2.8V16.6z M25.1,23.6 c0,1.5-1.2,2.8-2.8,2.8c-1.5,0-2.8-1.2-2.8-2.8c0-1.5,1.2-2.8,2.8-2.8C23.8,20.9,25.1,22.1,25.1,23.6L25.1,23.6z"/></g><text transform="translate(11.094 9.38)" fill="#FAFAFA" font-family="FreightSansProBook-Regular" font-size="7.051">Contact</text></svg>
